X: 1
T: Miss Jean's Jig
T: You're sitting in my chair!
C: Vince O'Nonnell
R: jig
Z: 2006 John Chambers <jc:trillian.mit.edu>
M: 6/8
L: 1/8
K: G
D \
|: "G"G2G- GFG | "Em"B2G- GFG | "C"Ecc "G"DBB | "Am"CEA "D7"FEF \
|  "G"G2G- GAB | "C"ceg "G"Bdg | "Am"Ace "G"dBG | "D7"DBA "G"G3 :|
|: "D7"FAA Ddd | "G"BdB GAB | "C"cee "G"dBG | "D7"AFD "C"GEC \
|   "D7"FAA Ddd | "G"BdB GAB | "C"cge "G"dBG | "D7"DBA "G"G3 :|
